!!!!SEGMENT: pl-kk--kk-i-35--001-004_anonim--missa-sanctus.krn
!!!cenid: 16xx:1337
!!!COM: Anonim
!!!COM-rismid: pe30004985
!!!CDT:
!!!CNT:
!!!OTL: Missa – Sanctus
!!!PDT:
!!!AGN: Sacred; Mass
!!!SMS-siglum: PL-Kk
!!!SMS-shelfmark: Kk.I.35
!!!SMS-shelfwork: 001-004 M
!!!SMS-variant:
!!!SMS-altvar:
!!!NIFC-rismid: 1001154769
!!!URL-scan: http://repozytorium.nifc.pl/skany/pl-kk-nut--i-35
!!!ONB-nifc: UWAGA: części Mszy: 1. Kyrie, 2. Et in terra, 3. Patrem, 4. Sanctus, 5. Agnus Dei
**kern	**fba	**kern	**text	**kern	**text	**kern	**text	**kern	**text
*part5	*	*part4	*part4	*part3	*part3	*part2	*part2	*part1	*part1
*staff5	*	*staff4	*staff4	*staff3	*staff3	*staff2	*staff2	*staff1	*staff1
*I"[Basso pro organo]	*	*I"[Bassus]	*	*I"[Tenor 2]	*	*I"[Tenor 1]	*	*I"[Cantus]	*
*I'org	*	*I'B	*	*I'T 2	*	*I'T 1	*	*I'C	*
*clefC4	*	*clefF4	*	*clefC4	*	*clefC3	*	*clefC1	*
*k[]	*	*k[]	*	*k[]	*	*k[]	*	*k[]	*
*C:	*	*C:	*	*C:	*	*C:	*	*C:	*
*M2/2	*	*M2/2	*	*M2/2	*	*M2/2	*	*M2/2	*
*met(C|)	*	*met(C|)	*	*met(C|)	*	*met(C|)	*	*met(C|)	*
!LO:TX:b:i:t=Sanct(us)	!	!LO:TX:a:i:t=ſanct(us)\ntacet	!	!	!	!	!	!	!
1f	.	0ryy	.	1r	.	1f	San-	00r	.
*	*	*	*	*	*	*lig	*	*	*
!LO:TX:t=P:problem:kreska pseudotaktowa	!	!	!	!	!	!	!	!	!
1c	.	.	.	1c	San-	1e	.	.	.
=1-	=1-	=1-	=1-	=1-	=1-	=1-	=1-	=1-	=1-
*	*	*	*	*lig	*	*	*	*	*
1B	.	0ryy	.	1B	.	1d	.	.	.
*	*	*	*	*	*	*Xlig	*	*	*
!LO:TX:t=P:problem:kreska pseudotaktowa	!	!	!	!	!	!	!	!	!
1A	.	.	.	1A	.	1e	.	.	.
*	*	*	*	*Xlig	*	*	*	*	*
=2-	=2-	=2-	=2-	=2-	=2-	=2-	=2-	=2-	=2-
1B	.	0ryy	.	1B	.	4g\	.	0r	.
.	.	.	.	.	.	4f\	.	.	.
.	.	.	.	.	.	4d\	.	.	.
.	.	.	.	.	.	4e\	.	.	.
*2\right	*	*	*	*	*	*	*	*	*
!	!	!	!	!	!	!	!	!	!
2d\	.	.	.	4d\	.	4f\	.	.	.
.	.	.	.	4c\	.	4e\	.	.	.
!LO:TX:t=P:problem:kreska pseudotaktowa	!	!	!	!	!	!	!	!	!
2A\	.	.	.	4A\	.	4c\	.	.	.
.	.	.	.	4B\	.	4d\	.	.	.
=3-	=3-	=3-	=3-	=3-	=3-	=3-	=3-	=3-	=3-
*	*	*	*	*2\right	*	*	*	*	*
!	!	!	!	!	!	!	!	!	!
2c\	.	0ryy	.	2c\	.	4e\	.	1cc	San-
.	.	.	.	.	.	4c\	.	.	.
2A\	.	.	.	2A\	.	4e\	.	.	.
!	!	!	!	!	!	!LO:TX:b:t=P:problem:# below	!	!	!
.	.	.	.	.	.	4f#X\	.	.	.
*	*	*	*	*	*	*	*	*lig	*
4d\	.	.	.	4d\	.	4g\	.	1b	.
4B\	.	.	.	4B\	.	4d\	.	.	.
4e\	.	.	.	4e\	.	1g	.	.	.
!LO:TX:t=P:problem:kreska pseudotaktowa	!	!	!	!	!	!	!	!	!
4d\	.	.	.	4d\	.	.	.	.	.
=4-	=4-	=4-	=4-	=4-	=4-	=4-	=4-	=4-	=4-
2c\	.	0ryy	.	4c\	.	.	.	1a	.
.	.	.	.	4A\	.	.	.	.	.
4d\	.	.	.	4d\	.	4fny\	.	.	.
4c\	.	.	.	4c\	.	4e\	.	.	.
*	*	*	*	*	*	*2\right	*	*Xlig	*
!	!	!	!	!	!	!	!	!LO:TX:t=P:problem:tekst słowny "dwuwarstwowy: - pierwotny grubszym piórem i mocno kursywowany; późniejszy cieńszym piórem, kursywa delikatniejsza	!
*	*	*	*	*	*	*	*	*lig	*
2B\	.	.	.	2B\	.	2d\	-ct(us)	1b	-ct(us)
!LO:TX:t=P:problem:kreska pseudotaktowa	!	!	!	!	!	!	!	!	!
2G\	.	.	.	4A\	.	2g\	San-	.	.
.	.	.	.	4G\	.	.	.	.	.
=5-	=5-	=5-	=5-	=5-	=5-	=5-	=5-	=5-	=5-
!	!	!	!	!	!	!LO:TX:b:t=P:problem:# below	!	!	!
2B\	.	0ryy	.	2B\	.	4f#X\	.	1dd	.
.	.	.	.	.	.	4d\	.	.	.
4G\	.	.	.	4G\	.	4g\	.	.	.
4B\	.	.	.	8A\L	.	4f#\	.	.	.
.	.	.	.	8B\J	.	.	.	.	.
*	*	*	*	*	*	*	*	*Xlig	*
!	!	!	!	!LO:SIC:v:t=custos A	!	!	!	!	!
2c\	.	.	.	2c\	-ct(us)	4e\	.	0cc	Do-
.	.	.	.	.	.	8f#\L	.	.	.
.	.	.	.	.	.	8g\J	.	.	.
!LO:TX:t=P:problem:kreska pseudotaktowa:między nutą a kropką	!	!	!	!LO:LB:g=original	!	!	!	!	!
2.A\	.	.	.	2.A\	Do-	2.a\	.	.	.
=6-	=6-	=6-	=6-	=6-	=6-	=6-	=6-	=6-	=6-
.	.	0ryy	.	.	.	.	.	.	.
4B\	.	.	.	4B\	.	8g\L	.	.	.
.	.	.	.	.	.	8fny\J	.	.	.
2.c\	.	.	.	2c\	-mi-	4e\	.	.	.
.	.	.	.	.	.	8a\L	.	.	.
!	!	!	!	!	!	!LO:SIC:v:t=custos f	!	!	!
.	.	.	.	.	.	8g\J	.	.	.
!	!	!	!	!	!	!LO:LB:g=original	!	!	!
.	.	.	.	2d\	-nus	2f#X\	-ct(us)	0b	-mi-
4d\	.	.	.	.	.	.	.	.	.
!LO:TX:t=P:problem:kreska pseudotaktowa:między nutą a kropką	!	!	!	!	!	!	!	!	!
2.e\	.	.	.	2.e\	De-	2.g\	Do-	.	.
=7-	=7-	=7-	=7-	=7-	=7-	=7-	=7-	=7-	=7-
.	.	0ryy	.	.	.	.	.	.	.
!	!	!	!	!	!	!LO:TX:b:t=P:problem:# below	!	!	!
4d\	.	.	.	4d\	.	4f#X\	.	.	.
4B\	.	.	.	4B\	.	4d\	-mi-	.	.
!	!	!	!	!LO:TX:b:t=P:problem:# below	!	!	!	!	!
4c\	.	.	.	4c#X\	.	4e\	.	.	.
!	!	!	!	!	!	!LO:TX:b:t=P:problem:# below	!	!	!
2d\	.	.	.	2d\	-us	2f#X\	-n(us)	0.a	-nus.
!LO:TX:b:t=P:problem:# below	!	!	!	!	!	!	!	!	!
2c#X\	.	.	.	2c#X\	Sab-	1g	De-	.	.
=8-	=8-	=8-	=8-	=8-	=8-	=8-	=8-	=8-	=8-
*	*below	*	*	*	*	*	*	*	*
[0d;l	#	0ryy	.	0d	-ba-	.	.	.	.
!	!	!	!	!	!	!LO:TX:b:t=P:problem:# below	!	!	!
.	.	.	.	.	.	4f#X\	.	.	.
.	.	.	.	.	.	4e\	.	.	.
!	!	!	!	!	!	!LO:TX:b:t=P:problem:# below	!	!	!
.	.	.	.	.	.	1f#X	-(us)	.	.
=9-	=9-	=9-	=9-	=9-	=9-	=9-	=9-	=9-	=9-
0d_	.	0ryy	.	00G;	-oth	2g\	D(e-	2g/	De-
.	.	.	.	.	.	2e\	-us)	2c/	-(us)
.	.	.	.	.	.	2B/	Sab-	2d/	Sab-
.	.	.	.	.	.	1c	-ba-	1e	-ba-
=10-	=10-	=10-	=10-	=10-	=10-	=10-	=10-	=10-	=10-
0d]	.	0ryy	.	.	.	.	.	.	.
.	.	.	.	.	.	4B/	.	4d/	.
.	.	.	.	.	.	4A/	.	4c/	.
.	.	.	.	.	.	1B;	-oth	1d;	-oth
*clefF4	*	*	*	*	*	*	*	*	*
!LO:LB:g=original	!	!	!	!LO:PB:g=original	!	!	!	!LO:LB:g=original	!
=11||	=11||	=11||	=11||	=11||	=11||	=11||	=11||	=11||	=11||
*met(C|)	*	*met(C|)	*	*met(C|)	*	*met(C|)	*	*met(C|)	*
!LO:TX:b:i:t=Pleni ſunt	!	!	!	!	!	!	!	!	!
1.F	.	1F	Ple-	1r	.	0r	.	00r	.
.	.	2r	.	1.c	Ple-	.	.	.	.
*2\right	*	*2\right	*	*	*	*	*	*	*
!LO:TX:t=P:problem:kreska pseudotaktowa	!	!	!	!	!	!	!	!	!
2F\	.	2F\	-ni	.	.	.	.	.	.
=12-	=12-	=12-	=12-	=12-	=12-	=12-	=12-	=12-	=12-
*	*above	*	*	*	*	*	*	*	*
1E	6	1E	ſunt	.	.	1r	.	.	.
.	.	.	.	2c\	-ni	.	.	.	.
!LO:TX:t=P:problem:kreska pseudotaktowa	!	!	!	!	!	!	!	!	!
1D	6	1D	.	1B	ſunt	1.f	Ple-	.	.
=13-	=13-	=13-	=13-	=13-	=13-	=13-	=13-	=13-	=13-
1F	.	1F	Cae-	1A	Cae-	.	.	1.cc	Ple-
.	.	.	.	.	.	2f\	-ni	.	.
2A\	.	2A\	-li	2c\	-li	1e	ſunt	.	.
*	*	*	*	*	*	*	*	*2\right	*
!LO:TX:t=P:problem:kreska pseudotaktowa	!	!	!	!	!	!	!	!	!
2E\	6	2E\	et	2.G\	Et	.	.	2cc\	-ni
=14-	=14-	=14-	=14-	=14-	=14-	=14-	=14-	=14-	=14-
2.G\	.	2.G\	ter-	.	.	1d	Cae-	1b	ſunt
.	.	.	.	4A\	.	.	.	.	.
.	.	.	.	1B	.	.	.	.	.
4F\	.	4F\	.	.	.	.	.	.	.
!	!	!	!	!	!	!LO:SIC:v:t=custos g	!	!	!
4E\	.	4E\	.	.	.	1e	-li	1g	.
4D\	.	4D\	.	.	.	.	.	.	.
!LO:TX:t=P:problem:kreska pseudotaktowa	!	!LO:LB:g=original	!	!	!	!	!	!	!
2C/	.	2C/	.	2c\	ter-	.	.	.	.
!	!	!	!	!	!	!LO:LB:g=original	!	!	!
=15-	=15-	=15-	=15-	=15-	=15-	=15-	=15-	=15-	=15-
2BB/	.	2BB/	.	2d\	.	1g	Et	1b	cae-
2GG/	.	2GG/	.	4c\	.	.	.	.	.
.	.	.	.	4B\	.	.	.	.	.
*	*	*	*	*	*	*lig	*	*	*
4D\	.	4D\	.	4A\	.	1f	ter-	1dd	-li
4E\	.	4E\	.	4G\	.	.	.	.	.
4F\	.	4F\	.	4A\	.	.	.	.	.
!LO:TX:t=P:problem:kreska pseudotaktowa	!	!	!	!	!	!	!	!	!
4G\	.	4G\	.	4B\	.	.	.	.	.
=16-	=16-	=16-	=16-	=16-	=16-	=16-	=16-	=16-	=16-
*	*below	*	*	*	*	*	*	*lig	*
1A	-	1A	.	2c\	.	1e	.	1cc	et
.	.	.	.	4d\	.	.	.	.	.
.	.	.	.	4e\	.	.	.	.	.
*	*above	*	*	*	*	*Xlig	*	*	*
!LO:TX:t=P:problem:kreska pseudotaktowa	!	!	!	!	!	!	!	!	!
1D	7	0D	-ra	2d\	.	2f#X\	.	1b	.
.	#	.	.	4c\	.	1g	.	.	.
.	.	.	.	4B\	.	.	.	.	.
*	*	*	*	*	*	*	*	*Xlig	*
=17-	=17-	=17-	=17-	=17-	=17-	=17-	=17-	=17-	=17-
!LO:TX:t=P:problem:kreska pseudotaktowa	!	!	!	!	!	!	!	!	!
!LO:TX:t=P:problem:# w bc below	!	!	!	!	!	!	!	!	!
*	*	*	*	*lig	*	*	*	*	*
0D;	4 #	.	.	1d	.	.	.	0a	ter-
!	!	!	!	!	!	!LO:TX:b:t=P:problem:# below	!	!	!
.	7	.	.	.	.	4f#X\	.	.	.
.	.	.	.	.	.	4e\	.	.	.
!	!	!	!	!	!	!LO:TX:b:t=P:problem:# below	!	!	!
.	.	1r	.	1D	.	1f#X	.	.	.
*	*	*	*	*Xlig	*	*	*	*	*
=18-	=18-	=18-	=18-	=18-	=18-	=18-	=18-	=18-	=18-
!	!	!	!	!LO:TX:a:t=4	!	!	!	!	!
!	!	!	!	!LO:SIC:v:t=custos c	!	!	!	!	!
1.G	.	2r	.	00G	-ra	1g	-ra	0g	-ra
.	.	(1G	glo-	.	.	.	.	.	.
.	.	.	.	.	.	1r	.	.	.
!LO:TX:t=P:problem:kreska pseudotaktowa	!	!	!	!	!	!	!	!	!
[2E\	.	2.E\)	.	.	.	.	.	.	.
=19-	=19-	=19-	=19-	=19-	=19-	=19-	=19-	=19-	=19-
*	*	*	*	*	*	*	*	*	*ij
2E\]	.	.	.	.	.	2r	.	1g	et
.	.	4E\	-ri-	.	.	.	.	.	.
2BB/	6	2BB/	-a	.	.	(1g	glo-	.	.
1C	.	1C	tu-	.	.	.	.	1g	ter-
.	.	.	.	.	.	2.e\)	.	.	.
=20-	=20-	=20-	=20-	=20-	=20-	=20-	=20-	=20-	=20-
!	!	!	!	!LO:SIC:v:t=custos c	!	!	!	!	!
1GG	.	1GG	-a	1r	.	.	.	0g	-ra
*	*	*	*	*	*	*	*	*	*Xij
.	.	.	.	.	.	4e\	-ri-	.	.
.	.	.	.	.	.	2B/	-a	.	.
!LO:SIC:v:t=custos G	!	!	!	!LO:LB:g=original	!	!	!	!	!
*	*	*	*	*lig	*	*	*	*	*
1C	.	1r	.	1c	glo-	1e	tu-	.	.
!LO:LB:g=original	!	!	!	!	!	!	!	!	!
=21-	=21-	=21-	=21-	=21-	=21-	=21-	=21-	=21-	=21-
1.G	.	2r	.	1B	.	2d\	-a	0r	.
*	*	*	*ij	*	*	*	*	*	*
.	.	2.G\	glo-	.	.	2.g\	glo-	.	.
*	*	*	*	*col	*	*	*	*	*
.	.	.	.	2.A/	.	.	.	.	.
.	.	4G\	-ri-	.	.	4g\	-ri-	.	.
!LO:TX:t=P:problem:kreska pseudotaktowa	!	!	!	!	!	!LO:TX:b:t=P:problem:# below	!	!	!
2D\	.	2D\	-a	.	.	2f#X\	-a	.	.
*	*	*	*	*Xlig	*	*	*	*	*
.	.	.	.	4A/	-ri-	.	.	.	.
*	*	*	*	*Xcol	*	*	*	*	*
=22-	=22-	=22-	=22-	=22-	=22-	=22-	=22-	=22-	=22-
!LO:TX:t=P:problem:# w bc below	!	!	!	!	!	!	!	!	!
1E	#3	1E	tu-	1E	-a	4g#X\	tu-	1r	.
.	4	.	.	.	.	2a\	.	.	.
.	7	.	.	.	.	4g#\	.	.	.
!LO:TX:t=P:problem:kreska pseudotaktowa	!	!	!	!	!	!	!	!	!
1AA	.	1AA	-a	1r	.	2a\	-a	(0cc	glo-
*	*	*	*Xij	*	*	*	*ij	*	*
.	.	.	.	.	.	2.e\	glo-	.	.
=23-	=23-	=23-	=23-	=23-	=23-	=23-	=23-	=23-	=23-
*	*	*	*	*lig	*	*	*	*	*
1A	.	00r	.	1A	glo-	.	.	.	.
.	.	.	.	.	.	4e\	-ri-	.	.
!	!	!	!	!	!	!LO:SIC:v:t=custos d	!	!	!
.	.	.	.	.	.	2c\	-a	.	.
!LO:TX:t=P:problem:kreska pseudotaktowa	!	!	!	!	!	!LO:LB:g=original	!	!LO:SIC:v:t=custos a	!
1G	.	.	.	1G	.	2d\	tu-	1b)	.
.	.	.	.	.	.	2e\	-a	.	.
*	*	*	*	*Xlig	*	*	*Xij	*	*
!	!	!	!	!	!	!	!	!LO:LB:g=original	!
=24-	=24-	=24-	=24-	=24-	=24-	=24-	=24-	=24-	=24-
1F	.	.	.	1F	.	2.c\	glo-	2.a\	.
.	.	.	.	.	.	4d\	-ri-	4a\	-ri-
!LO:TX:t=P:problem:kreska pseudotaktowa	!	!	!	!	!	!	!	!	!
1C	.	.	.	1C	-ri-	2e\	-a	2e/	-a
*	*	*	*	*	*	*	*ij	*	*
.	.	.	.	.	.	2.c\	glo-	1a	tu-
=25-	=25-	=25-	=25-	=25-	=25-	=25-	=25-	=25-	=25-
1E	.	00r	.	1E	-a	.	.	.	.
.	.	.	.	.	.	4c\	-ri-	.	.
!	!	!	!	!	!	!LO:TX:t=P:problem:cauda skreślona	!	!	!
.	.	.	.	.	.	1B	-a	2g\	.
*	*	*	*	*lig	*	*	*Xij	*	*
!LO:TX:t=P:problem:kreska pseudotaktowa	!	!	!	!	!	!	!	!	!
1G	.	.	.	1G	glo-	.	.	1e	.
.	.	.	.	.	.	2.gny\	glo-	.	.
*clefC4	*	*	*	*	*	*	*	*	*
=26-	=26-	=26-	=26-	=26-	=26-	=26-	=26-	=26-	=26-
1A	.	.	.	1A	.	.	.	2c/	-a
.	.	.	.	.	.	4g\	-ri-	.	.
*	*	*	*	*	*	*2\left	*	*	*
.	.	.	.	.	.	2fny\	-a	1cc	glo-
*	*	*	*	*Xlig	*	*2\right	*	*	*
!LO:TX:t=P:problem:kreska pseudotaktowa	!	!	!	!	!	!	!	!	!
1G	.	.	.	1G	.	2e\	.	.	.
.	.	.	.	.	.	2.g\	.	4b\	.
.	.	.	.	.	.	.	.	4a\	.
=27-	=27-	=27-	=27-	=27-	=27-	=27-	=27-	=27-	=27-
!	!	!LO:SIC:v:t=custos C	!	!	!	!	!	!	!
1c	.	00r	.	1c	.	.	.	2g\	.
.	.	.	.	.	.	4f\	.	.	.
.	.	.	.	.	.	2e\	.	2a\	.
*	*	*	*	*lig	*	*	*	*	*
!LO:TX:t=P:problem:kreska pseudotaktowa	!	!	!	!	!	!	!	!	!
1B	.	.	.	1B	.	2d\	.	4b\	.
.	.	.	.	.	.	.	.	4cc\	.
.	.	.	.	.	.	2g\	.	4dd\	.
.	.	.	.	.	.	.	.	4b\	.
=28-	=28-	=28-	=28-	=28-	=28-	=28-	=28-	=28-	=28-
1A	.	.	.	1A	.	2e\	.	4cc\	.
.	.	.	.	.	.	.	.	4dd\	.
.	.	.	.	.	.	2f#X\	tu-	4ee\	.
.	.	.	.	.	.	.	.	4cc\	.
*	*	*	*	*Xlig	*	*	*	*	*
!LO:TX:t=P:problem:kreska pseudotaktowa	!	!	!	!	!	!	!	!	!
1G	.	.	.	1G	-ri-	2d\	-a	2dd\	.
.	.	.	.	.	.	2.g\	glo-	2.ee\	.
*clefF4	*	*	*	*lig	*	*	*	*	*
!	!	!LO:LB:g=original	!	!	!	!	!	!	!
=29-	=29-	=29-	=29-	=29-	=29-	=29-	=29-	=29-	=29-
!LO:TX:t=P:problem:skreślenia przez 4 takty	!	!	!	!	!	!	!	!	!
1C	.	2r	.	1E	-a	.	.	.	.
.	.	.	.	.	.	4fny\	.	4dd\	.
.	.	2.C/	glo-	.	.	2.e\	.	4cc\	.
.	.	.	.	.	.	.	.	4b\	.
!LO:TX:t=P:problem:kreska pseudotaktowa	!	!	!	!	!	!	!	!	!
1AA	.	.	.	1C	.	.	.	4cc\	.
.	.	4C/	-ri-	.	.	4e\	-ri-	4g\	.
!	!	!	!	!	!	!LO:TX:b:t=P:problem:# below	!	!	!
.	.	2AA/	-a	.	.	2f#X\	-a	1cc	-ri-
*	*	*	*	*Xlig	*	*	*	*	*
=30-	=30-	=30-	=30-	=30-	=30-	=30-	=30-	=30-	=30-
!LO:TX:t=P:problem:kreska pseudotaktowa	!	!	!	!	!	!	!	!	!
0GG	.	0GG	tu-	0ryy	.	2g\	.	.	.
.	.	.	.	.	.	2f#X\	.	4b\	-a
.	.	.	.	.	.	.	.	4a\	.
!	!	!	!	!	!	!LO:SIC:v:t=custos d	!	!	!
.	.	.	.	.	.	2g\	.	1b	tu-
!	!	!	!	!	!	!LO:LB:g=original	!	!	!
.	.	.	.	.	.	2d\	tu-	.	.
=31-	=31-	=31-	=31-	=31-	=31-	=31-	=31-	=31-	=31-
!	!	!	!	!	!	!	!	!LO:TX:a:t=P:problem:oddech jako rozdzielacz słów:global	!
1C	.	2C/	-a	0D	tu-	2e\	-a	2cc,<\	-a
*	*	*	*ij	*	*	*	*	*	*
.	.	2.FF/	glo-	.	.	1fny	.	1a	glo-
!LO:TX:t=P:problem:kreska pseudotaktowa	!	!	!	!	!	!	!	!	!
1FF	.	.	.	.	.	.	.	.	.
.	.	4FF/	-ri-	.	.	.	.	.	.
!	!	!LO:TX:t=P:problem:cauda skreślona	!	!	!	!	!	!	!
.	.	1C	-a	.	.	4c\	.	4g/	-ri-
.	.	.	.	.	.	4d\	.	4f/	-a
!	!	!	!	!	!	!	!	!LO:PB:g=original	!
=32-	=32-	=32-	=32-	=32-	=32-	=32-	=32-	=32-	=32-
2C/	.	.	.	00C;	-a	4e\	.	2g\	tu-
.	.	.	.	.	.	4c\	.	.	.
2FF/	.	1.FF	tu-	.	.	1f	.	1a	.
1FF	.	.	.	.	.	.	.	.	.
.	.	.	.	.	.	4e\	.	4g\	.
.	.	.	.	.	.	4d\	.	4f\	.
=33-	=33-	=33-	=33-	=33-	=33-	=33-	=33-	=33-	=33-
0C;l	.	0C;l	-a	.	.	0e;l	.	0g;l	-a.
*clefC3	*	*	*Xij	*	*	*	*	*	*
!LO:LB:g=original	!	!LO:LB:g=original	!	!LO:LB:g=original	!	!	!	!	!
=34||	=34||	=34||	=34||	=34||	=34||	=34||	=34||	=34||	=34||
*met(C|)	*	*met(C|)	*	*met(C|)	*	*met(C|)	*	*met(C|)	*
!LO:TX:b:i:t=Oſanna	!	!	!	!	!	!	!	!	!
1e	.	00r	.	0r	.	1e	O-	00r	.
2e\	.	.	.	.	.	2e\	-ſan-	.	.
2e\	.	.	.	.	.	2e\	-na	.	.
*clefC4	*	*	*	*	*	*	*	*	*
=35-	=35-	=35-	=35-	=35-	=35-	=35-	=35-	=35-	=35-
1c	.	.	.	1c	O-	2c\	in	.	.
.	.	.	.	.	.	2e\	Ex-	.	.
2c\	5	.	.	2c\	-ſan-	2g\	-cel-	.	.
!LO:TX:t=P:problem:kreska pseudotaktowa	!	!	!	!	!	!	!	!	!
2c\	6	.	.	2c\	-na	2.a\	.	.	.
=36-	=36-	=36-	=36-	=36-	=36-	=36-	=36-	=36-	=36-
2A\	.	00r	.	2A\	in	.	.	00r	.
.	.	.	.	.	.	4g\	.	.	.
2c\	.	.	.	2c\	ex-	4f\	.	.	.
.	.	.	.	.	.	4e\	.	.	.
2.d\	.	.	.	2.d\	-cel-	2.f\	.	.	.
!LO:TX:t=P:problem:kreska pseudotaktowa	!	!	!	!	!	!LO:SIC:v:t=custos d	!	!	!
4c\	.	.	.	4c\	.	4e\	.	.	.
!	!	!	!	!	!	!LO:LB:g=original	!	!	!
=37-	=37-	=37-	=37-	=37-	=37-	=37-	=37-	=37-	=37-
4B\	.	.	.	4B\	.	2d\	.	.	.
4A\	.	.	.	4A\	.	.	.	.	.
2G\	6	.	.	2G\	.	2.e\	.	.	.
2.A\	.	.	.	2.A/	.	.	.	.	.
.	.	.	.	.	.	4d\	.	.	.
.	.	.	.	.	.	4c\	.	.	.
!LO:TX:t=P:problem:kreska pseudotaktowa	!	!	!	!	!	!	!	!	!
4G\	.	.	.	4G/	.	4B\	.	.	.
=38-	=38-	=38-	=38-	=38-	=38-	=38-	=38-	=38-	=38-
4F/	.	00r	.	4F/	.	2c\	.	1r	.
4E/	.	.	.	4E/	.	.	.	.	.
2F/	.	.	.	2F/	.	1d	.	.	.
!LO:TX:b:t=P:problem:# below	!	!	!	!	!	!	!	!	!
2G#X/	.	.	.	2G/	.	.	.	1e	O-
!LO:TX:t=P:problem:kreska pseudotaktowa	!	!	!	!	!	!	!	!	!
[2A/	.	.	.	1A	.	2c\	.	.	.
=39-	=39-	=39-	=39-	=39-	=39-	=39-	=39-	=39-	=39-
2A/]	.	.	.	.	.	1B	.	2e/	-ſan-
!LO:TX:b:t=P:problem:# below	!	!	!	!	!	!	!	!	!
2G#X/	.	.	.	2G/	.	.	.	2e/	-na
1A	.	.	.	4A\	.	1A	-sis	2c/	in
.	.	.	.	4B\	.	.	.	.	.
.	.	.	.	2.c\	.	.	.	2e/	ex-
*clefF4	*	*	*	*	*	*	*	*	*
=40-	=40-	=40-	=40-	=40-	=40-	=40-	=40-	=40-	=40-
1C	.	1C	O-	.	.	2r	.	0g	-cel-
.	.	.	.	4d\	.	.	.	.	.
*	*	*	*	*	*	*	*ij	*	*
.	.	.	.	4e\	.	2e\	o-	.	.
!	!	!	!	!LO:SIC:v:t=custos c	!	!	!	!	!
.	.	.	.	4d\	.	.	.	.	.
!	!	!	!	!LO:LB:g=original	!	!	!	!	!
2C/	.	2C/	-ſan-	2c\	.	2e\	-ſan-	.	.
!LO:TX:t=P:problem:kreska pseudotaktowa	!	!	!	!	!	!	!	!	!
2C/	.	2C/	-na	4c\	.	2e\	-na	.	.
.	.	.	.	4B\	.	.	.	.	.
=41-	=41-	=41-	=41-	=41-	=41-	=41-	=41-	=41-	=41-
!	!	!	!	!	!	!	!	!LO:TX:a:t=4	!
2AA/	.	2AA/	in	2.c\	.	2c\	in	00a	.
2C/	.	2C/	ex-	.	.	2e\	Ex-	.	.
.	.	.	.	4B\	.	.	.	.	.
2D/	.	2D/	-cel-	4A\	.	2f#X\	-cel-	.	.
.	.	.	.	4G\	.	.	.	.	.
!LO:TX:t=P:problem:kreska pseudotaktowa	!	!	!	!	!	!	!	!	!
2C/	.	2C/	.	2d\	.	1g	.	.	.
=42-	=42-	=42-	=42-	=42-	=42-	=42-	=42-	=42-	=42-
0D	4	0D	.	2e\	.	.	.	.	.
!LO:TX:t=P:problem:# w bc below	!	!	!	!	!	!LO:TX:b:t=P:problem:# below	!	!	!
.	#3	.	.	1d	.	4f#X\	.	.	.
.	.	.	.	.	.	4e\	.	.	.
!	!	!	!	!	!	!LO:TX:b:t=P:problem:# below	!	!	!
.	.	.	.	.	.	1f#X	.	.	.
.	.	.	.	2c\	.	.	.	.	.
=43-	=43-	=43-	=43-	=43-	=43-	=43-	=43-	=43-	=43-
[0GG;l	.	[0GG;l	-ſis.	4B\	.	2g,<\	-sis	[0g;l	-ſis..
*	*	*	*	*	*	*	*Xij	*	*
.	.	.	.	4c\	.	.	.	.	.
.	.	.	.	4d\	.	1fny	In	.	.
.	.	.	.	4c\	.	.	.	.	.
.	.	.	.	4B\	.	.	.	.	.
.	.	.	.	4G\	.	.	.	.	.
.	.	.	.	4c\	.	1e	ex-	.	.
.	.	.	.	4A\	.	.	.	.	.
=44-	=44-	=44-	=44-	=44-	=44-	=44-	=44-	=44-	=44-
0GG_	.	0GG_	.	4B\	.	.	.	0g_	.
.	.	.	.	4c\	.	.	.	.	.
.	.	.	.	4G\	.	4d\	-cel-	.	.
.	.	.	.	4A\	.	4c\	.	.	.
.	.	.	.	2B\	.	2d\	.	.	.
.	.	.	.	2c\	.	2e\	.	.	.
=45-	=45-	=45-	=45-	=45-	=45-	=45-	=45-	=45-	=45-
!	!	!LO:TX:b:i:t=Benedict(us) \ntacet\nOſanna ut ſup(ra)	!	!	!	!	!	!	!
0GG]	.	0GG]	.	0B;l	-ſis.	0d;l	-sis.	0g]	.
!LO:LB:g=original	!	!	!	!LO:LB:g=original	!	!LO:PB:g=original	!	!LO:LB:g=original	!
=46||	=46||	=46||	=46||	=46||	=46||	=46||	=46||	=46||	=46||
*clefC4	*	*	*	*	*	*	*	*	*
*met(C|)	*	*met(C|)	*	*met(C|)	*	*met(C|)	*	*met(C|)	*
!LO:TX:b:i:t=Benedict(us)	!	!	!	!	!	!	!	!	!
1c	.	0ryy	.	1c	Be-	2r	.	00r	.
!	!	!	!	!	!	!LO:TX:a:t=a3	!	!	!
.	.	.	.	.	.	2g\	Be-	.	.
!LO:TX:a:t=a3	!	!	!	!	!	!	!	!	!
!LO:TX:t=P:problem:kreska pseudotaktowa	!	!	!	!	!	!	!	!	!
1c	.	.	.	1c	-ne-	2g\	-ne-	.	.
.	.	.	.	.	.	2e\	-dic-	.	.
=47-	=47-	=47-	=47-	=47-	=47-	=47-	=47-	=47-	=47-
1B	.	0ryy	.	1B	-dic-	2d\	-t(us)	.	.
.	.	.	.	.	.	2g\	qui	.	.
!LO:TX:t=P:problem:kreska pseudotaktowa	!	!	!	!	!	!	!	!	!
1A	.	.	.	1A	-t(us)	4f\	Ve-	.	.
.	.	.	.	.	.	4g\	.	.	.
.	.	.	.	.	.	4a\	.	.	.
.	.	.	.	.	.	4f\	.	.	.
=48-	=48-	=48-	=48-	=48-	=48-	=48-	=48-	=48-	=48-
*	*	*	*	*lig	*	*	*	*	*
1B	.	0ryy	.	1B	qui	4g\	.	00r	.
.	.	.	.	.	.	4f\	.	.	.
.	.	.	.	.	.	4d\	.	.	.
.	.	.	.	.	.	4e\	.	.	.
!LO:TX:t=P:problem:kreska pseudotaktowa	!	!	!	!	!	!	!	!	!
1d	.	.	.	1d	.	4f\	.	.	.
.	.	.	.	.	.	4d\	.	.	.
.	.	.	.	.	.	4f\	.	.	.
.	.	.	.	.	.	4g\	.	.	.
*	*	*	*	*Xlig	*	*	*	*	*
=49-	=49-	=49-	=49-	=49-	=49-	=49-	=49-	=49-	=49-
*	*	*	*	*lig	*	*	*	*	*
1c	.	0ryy	.	1c	Ve-	4a\	.	.	.
.	.	.	.	.	.	4e\	.	.	.
.	.	.	.	.	.	2.a\	.	.	.
!LO:TX:t=P:problem:kreska pseudotaktowa	!	!	!	!	!	!	!	!	!
1B	.	.	.	1B	.	.	.	.	.
.	.	.	.	.	.	4g\	.	.	.
.	.	.	.	.	.	1g	.	.	.
*	*	*	*	*Xlig	*	*	*	*	*
=50-	=50-	=50-	=50-	=50-	=50-	=50-	=50-	=50-	=50-
!LO:TX:t=P:problem:kreska pseudotaktowa	!	!	!	!	!	!	!	!	!
0A	.	0ryy	.	0A	.	.	.	1cc	Be-
!	!	!	!	!	!	!LO:TX:b:t=P:problem:# below	!	!	!
.	.	.	.	.	.	4f#X\	.	.	.
.	.	.	.	.	.	4e\	.	.	.
!	!	!	!	!	!	!LO:TX:b:t=P:problem:# below	!	!	!
.	.	.	.	.	.	1f#X	.	1cc	-ne-
=51-	=51-	=51-	=51-	=51-	=51-	=51-	=51-	=51-	=51-
!LO:TX:t=P:problem:kreska pseudotaktowa	!	!	!	!	!	!	!	!	!
0G	.	0ryy	.	0G	-nit	1g	-nit	1.b	-dic-
.	.	.	.	.	.	1r	.	.	.
.	.	.	.	.	.	.	.	2g\	-tus
=52-	=52-	=52-	=52-	=52-	=52-	=52-	=52-	=52-	=52-
1G	.	0ryy	.	1r	.	2r	.	2b\	qui
.	.	.	.	.	.	2d\	qui	2dd\	.
!LO:TX:t=P:problem:kreska pseudotaktowa	!	!	!	!	!	!	!	!	!
1c	.	.	.	1c	qui	2e\	.	2cc\	.
.	.	.	.	.	.	1g	Ve-	1b	ve-
=53-	=53-	=53-	=53-	=53-	=53-	=53-	=53-	=53-	=53-
!LO:TX:t=P:problem:kreska pseudotaktowa	!	!	!	!	!	!	!	!	!
0d	4	0ryy	.	0d	Ve-	.	.	.	.
!LO:TX:t=P:problem:# w bc below	!	!	!	!	!	!	!	!	!
.	#3	.	.	.	.	4fny\	.	4a\	.
!	!	!	!	!	!	!LO:SIC:v:t=custos f	!	!	!
.	.	.	.	.	.	4e\	.	4g\	.
!	!	!	!	!	!	!LO:LB:g=original	!	!	!
!	!	!	!	!	!	!LO:TX:b:t=P:problem:# below	!	!	!
.	.	.	.	.	.	1f#X	-nit	1a	.
=54-	=54-	=54-	=54-	=54-	=54-	=54-	=54-	=54-	=54-
1G	.	0ryy	.	1G	-nit	2r	.	0g	-nit
.	.	.	.	.	.	2g\	In	.	.
!LO:TX:t=P:problem:kreska pseudotaktowa	!	!	!	!	!	!	!	!	!
1c	.	.	.	1c	In	2.e\	no-	.	.
.	.	.	.	.	.	4e\	-mi-	.	.
=55-	=55-	=55-	=55-	=55-	=55-	=55-	=55-	=55-	=55-
1A	.	0ryy	.	2.A\	no-	2c\	-ne	2cc\	in
.	.	.	.	.	.	2.e\	Do-	2.a\	no-
.	.	.	.	4A\	-mi-	.	.	.	.
!LO:TX:t=P:problem:kreska pseudotaktowa	!	!	!	!	!	!	!	!	!
1E	4	.	.	1E	-ne	.	.	.	.
.	.	.	.	.	.	4d\	.	4a\	[-mi-
.	.	.	.	.	.	4c\	.	1e	-ne]
.	.	.	.	.	.	4B\	.	.	.
=56-	=56-	=56-	=56-	=56-	=56-	=56-	=56-	=56-	=56-
*	*	*	*	*lig	*	*	*	*	*
1A	.	0ryy	.	1A	Do-	2.c\	.	.	.
.	.	.	.	.	.	.	.	2.a\	Do-
.	.	.	.	.	.	4B\	.	.	.
!LO:TX:t=P:problem:kreska pseudotaktowa	!	!	!	!LO:SIC:v:t=custos d	!	!	!	!	!
1F	.	.	.	1E	.	2A/	.	.	.
.	.	.	.	.	.	.	.	4g\	.
.	.	.	.	.	.	1d	.	4f/	.
.	.	.	.	.	.	.	.	4e/	.
*	*	*	*	*Xlig	*	*	*	*	*
!	!	!	!	!LO:LB:g=original	!	!	!	!	!
=57-	=57-	=57-	=57-	=57-	=57-	=57-	=57-	=57-	=57-
1D	.	0ryy	.	1D	.	.	.	4f#X/	.
.	.	.	.	.	.	.	.	4g/	.
.	.	.	.	.	.	2A/	.	4a/	.
!	!	!	!	!	!	!	!	!LO:SIC:v:t=custos g	!
.	.	.	.	.	.	.	.	4f#/	.
!	!	!	!	!	!	!	!	!LO:LB:g=original	!
2G/	.	.	.	2G/	.	4B\	.	2g\	.
.	.	.	.	.	.	4c\	.	.	.
2F/	.	.	.	2F/	.	1d	.	2a\	.
=58-	=58-	=58-	=58-	=58-	=58-	=58-	=58-	=58-	=58-
!LO:TX:a:t=P:problem:bc ?	!	!	!	!	!	!	!	!	!
0G	.	0ryy	.	1.G	.	.	.	2b\	.
.	.	.	.	.	.	2e\	.	1cc	.
.	.	.	.	.	.	2.d\	.	.	.
.	.	.	.	2G/	-mi-	.	.	2b\	-mi-
.	.	.	.	.	.	4d\	-mi-	.	.
=59-	=59-	=59-	=59-	=59-	=59-	=59-	=59-	=59-	=59-
!LO:TX:b:i:t=Oſanna\nut ſup(ra)	!	!	!	!LO:TX:b:i:t=Oſanna\nut ſup(ra)	!	!LO:TX:b:i:t=Oſanna\nut ſup(ra)	!	!	!
0C;l	.	0ryy	.	0Cl	-ni.	0e;l	-ni.	0cc;l	-ni
*clefC3	*	*	*	*	*	*	*	*	*
!LO:LB:g=original	!	!	!	!	!	!LO:LB:g=original	!	!	!
=60||	=60||	=60||	=60||	=60||	=60||	=60||	=60||	=60||	=60||
*met(C|)	*	*met(C|)	*	*met(C|)	*	*met(C|)	*	*met(C|)	*
!LO:TX:b:i:t=Oſanna	!	!	!	!	!	!	!	!	!
1eyy	.	00ryy	.	0ryy	.	1eyy	O-	00r	.
2e\yy	.	.	.	.	.	2e\yy	-ſan-	.	.
2e\yy	.	.	.	.	.	2e\yy	-na	.	.
*clefC4	*	*	*	*	*	*	*	*	*
=61-	=61-	=61-	=61-	=61-	=61-	=61-	=61-	=61-	=61-
1cyy	.	.	.	1cyy	O-	2c\yy	in	.	.
.	.	.	.	.	.	2e\yy	Ex-	.	.
2c\yy	5	.	.	2c\yy	-ſan-	2g\yy	-cel-	.	.
!LO:TX:t=P:problem:kreska pseudotaktowa	!	!	!	!	!	!	!	!	!
2c\yy	6	.	.	2c\yy	-na	2.a\yy	.	.	.
=62-	=62-	=62-	=62-	=62-	=62-	=62-	=62-	=62-	=62-
2A\yy	.	00ryy	.	2A\yy	in	.	.	00r	.
.	.	.	.	.	.	4g\yy	.	.	.
2c\yy	.	.	.	2c\yy	ex-	4f\yy	.	.	.
.	.	.	.	.	.	4e\yy	.	.	.
2.d\yy	.	.	.	2.d\yy	-cel-	2.f\yy	.	.	.
!LO:TX:t=P:problem:kreska pseudotaktowa	!	!	!	!	!	!LO:SIC:v:t=custos d	!	!	!
4c\yy	.	.	.	4c\yy	.	4e\yy	.	.	.
!	!	!	!	!	!	!LO:LB:g=original	!	!	!
=63-	=63-	=63-	=63-	=63-	=63-	=63-	=63-	=63-	=63-
4B\yy	.	.	.	4B\yy	.	2d\yy	.	.	.
4A\yy	.	.	.	4A\yy	.	.	.	.	.
2G\yy	6	.	.	2G\yy	.	2.e\yy	.	.	.
2.A\yy	.	.	.	2.A/yy	.	.	.	.	.
.	.	.	.	.	.	4d\yy	.	.	.
.	.	.	.	.	.	4c\yy	.	.	.
!LO:TX:t=P:problem:kreska pseudotaktowa	!	!	!	!	!	!	!	!	!
4G\yy	.	.	.	4G/yy	.	4B\yy	.	.	.
=64-	=64-	=64-	=64-	=64-	=64-	=64-	=64-	=64-	=64-
4F/yy	.	00ryy	.	4F/yy	.	2c\yy	.	1r	.
4E/yy	.	.	.	4E/yy	.	.	.	.	.
2F/yy	.	.	.	2F/yy	.	1dyy	.	.	.
!LO:TX:b:t=P:problem:# below	!	!	!	!	!	!	!	!	!
2G#X/yy	.	.	.	2G/yy	.	.	.	1e	O-
!LO:TX:t=P:problem:kreska pseudotaktowa	!	!	!	!	!	!	!	!	!
[y2A/yy	.	.	.	1Ayy	.	2c\yy	.	.	.
=65-	=65-	=65-	=65-	=65-	=65-	=65-	=65-	=65-	=65-
2A/]yy	.	.	.	.	.	1Byy	.	2e/	-ſan-
!LO:TX:b:t=P:problem:# below	!	!	!	!	!	!	!	!	!
2G#X/yy	.	.	.	2G/yy	.	.	.	2e/	-na
1Ayy	.	.	.	4A\yy	.	1Ayy	-sis	2c/	in
.	.	.	.	4B\yy	.	.	.	.	.
.	.	.	.	2.c\yy	.	.	.	2e/	ex-
*clefF4	*	*	*	*	*	*	*	*	*
=66-	=66-	=66-	=66-	=66-	=66-	=66-	=66-	=66-	=66-
1Cyy	.	1Cyy	O-	.	.	2ryy	.	0g	-cel--
.	.	.	.	4d\yy	.	.	.	.	.
*	*	*	*	*	*	*	*ij	*	*
.	.	.	.	4e\yy	.	2e\yy	o-	.	.
!	!	!	!	!LO:SIC:v:t=custos c	!	!	!	!	!
.	.	.	.	4d\yy	.	.	.	.	.
!	!	!	!	!LO:LB:g=original	!	!	!	!	!
2C/yy	.	2C/yy	-ſan-	2c\yy	.	2e\yy	-ſan-	.	.
!LO:TX:t=P:problem:kreska pseudotaktowa	!	!	!	!	!	!	!	!	!
2C/yy	.	2C/yy	-na	4c\yy	.	2e\yy	-na	.	.
.	.	.	.	4B\yy	.	.	.	.	.
=67-	=67-	=67-	=67-	=67-	=67-	=67-	=67-	=67-	=67-
2AA/yy	.	2AA/yy	in	2.c\yy	.	2c\yy	in	00a	-cel-
2C/yy	.	2C/yy	ex-	.	.	2e\yy	Ex-	.	.
.	.	.	.	4B\yy	.	.	.	.	.
2D/yy	.	2D/yy	-cel-	4A\yy	.	2f#X\yy	-cel-	.	.
.	.	.	.	4G\yy	.	.	.	.	.
!LO:TX:t=P:problem:kreska pseudotaktowa	!	!	!	!	!	!	!	!	!
2C/yy	.	2C/yy	.	2d\yy	.	1gyy	.	.	.
=68-	=68-	=68-	=68-	=68-	=68-	=68-	=68-	=68-	=68-
0Dyy	4	0Dyy	.	2e\yy	.	.	.	.	.
!LO:TX:t=P:problem:# w bc below	!	!	!	!	!	!LO:TX:b:t=P:problem:# below	!	!	!
.	#3	.	.	1dyy	.	4f#X\yy	.	.	.
.	.	.	.	.	.	4e\yy	.	.	.
!	!	!	!	!	!	!LO:TX:b:t=P:problem:# below	!	!	!
.	.	.	.	.	.	1f#Xyy	.	.	.
.	.	.	.	2c\yy	.	.	.	.	.
=69-	=69-	=69-	=69-	=69-	=69-	=69-	=69-	=69-	=69-
[0GG;lyy	.	[0GG;lyy	-ſis.	4B\yy	.	2g,<\yy	-sis	[0g;l	-ſis
*	*	*	*	*	*	*	*Xij	*	*
.	.	.	.	4c\yy	.	.	.	.	.
.	.	.	.	4d\yy	.	1fnyyy	In	.	.
.	.	.	.	4c\yy	.	.	.	.	.
.	.	.	.	4B\yy	.	.	.	.	.
.	.	.	.	4G\yy	.	.	.	.	.
.	.	.	.	4c\yy	.	1eyy	ex-	.	.
.	.	.	.	4A\yy	.	.	.	.	.
=70-	=70-	=70-	=70-	=70-	=70-	=70-	=70-	=70-	=70-
0GG_	.	0GG_	.	4B\yy	.	.	.	0g_	.
.	.	.	.	4c\yy	.	.	.	.	.
.	.	.	.	4G\yy	.	4d\yy	-cel-	.	.
.	.	.	.	4A\yy	.	4c\yy	.	.	.
.	.	.	.	2B\yy	.	2d\yy	.	.	.
.	.	.	.	2c\yy	.	2e\yy	.	.	.
=71-	=71-	=71-	=71-	=71-	=71-	=71-	=71-	=71-	=71-
0GG]	.	0GG]	.	0B;lyy	-ſis.	0d;lyy	-sis.	0g]	.
!LO:LB:g=original	!	!	!	!LO:LB:g=original	!	!LO:PB:g=original	!	!	!
=72||	=72||	=72||	=72||	=72||	=72||	=72||	=72||	=72||	=72||
*met(C|)	*	*met(C|)	*	*met(C|)	*	*met(C|)	*	*met(C|)	*
!LO:TX:b:i:t=aliud Sanct(us)	!	!	!	!	!	!	!	!LO:TX:t=P:problem:w każdej z ksiąg głosowych po Agnus zanotowana jest druga, alternatywna wersja całego Sanctus, oznaczona aliud.	!
!LO:TX:a:i:t=aliud	!	!LO:TX:a:i:t=aliud\n+	!	!LO:TX:a:i:t=aliud+	!	!LO:TX:a:Bi:t=+\naliud	!	!LO:TX:a:Bi:t=aliud\n+	!
1c	.	1r	.	1c	San-	00r	.	00r	.
*	*	*	*	*lig	*	*	*	*	*
!LO:TX:t=P:problem:kreska pseudotaktowa	!	!	!	!	!	!	!	!	!
1G	.	1G	San-	1B	.	.	.	.	.
=73-	=73-	=73-	=73-	=73-	=73-	=73-	=73-	=73-	=73-
*	*	*lig	*	*	*	*	*	*	*
1F	.	1F	.	1A	.	.	.	.	.
*	*	*	*	*Xlig	*	*	*	*	*
*	*	*	*	*lig	*	*	*	*	*
!LO:TX:t=P:problem:kreska pseudotaktowa	!	!	!	!	!	!	!	!	!
1E	.	1E	.	1B	.	.	.	.	.
*	*	*Xlig	*	*	*	*	*	*	*
=74-	=74-	=74-	=74-	=74-	=74-	=74-	=74-	=74-	=74-
2D\	.	4D\	.	1d	.	0r	.	0r	.
.	.	4E\	.	.	.	.	.	.	.
2F\	6	4F\	.	.	.	.	.	.	.
.	.	4G\	.	.	.	.	.	.	.
*	*	*	*	*Xlig	*	*	*	*	*
4A\	.	4A\	.	2c\	.	.	.	.	.
4G\	.	4G\	.	.	.	.	.	.	.
!LO:TX:t=P:problem:kreska pseudotaktowa	!	!	!	!	!	!	!	!	!
[<2G\	.	1G	.	2B\	.	.	.	.	.
=75-	=75-	=75-	=75-	=75-	=75-	=75-	=75-	=75-	=75-
2G\]	2	.	.	1A	.	1r	.	1cc	San-
2F#X\	.	2F\	.	.	.	.	.	.	.
*	*	*lig	*	*	*	*	*	*lig	*
!LO:TX:t=P:problem:kreska pseudotaktowa	!	!	!	!	!	!	!	!	!
1G	.	1G	-ct(us)	1G	-ct(us)	1g	San-	1b	.
=76-	=76-	=76-	=76-	=76-	=76-	=76-	=76-	=76-	=76-
*	*	*	*	*	*	*lig	*	*	*
1D	-	1D	.	0r	.	1f	.	1a	.
*	*	*Xlig	*	*	*	*	*	*Xlig	*
!LO:TX:t=P:problem:kreska pseudotaktowa	!	!	!	!	!	!	!	!	!
1E	.	1r	.	.	.	1e	.	1b	.
*	*	*	*	*	*	*Xlig	*	*	*
=77-	=77-	=77-	=77-	=77-	=77-	=77-	=77-	=77-	=77-
1.G	.	1.G	ſan-	1.B	San	2d\	-ct(us)	0dd	.
.	.	.	.	.	.	2.d\	ſan-	.	.
.	.	.	.	.	.	4e\	.	.	.
!LO:TX:t=P:problem:kreska pseudotaktowa	!	!	!	!	!	!	!	!	!
2F\	.	2F\	.	2A\	.	4f\	.	.	.
.	.	.	.	.	.	4d\	.	.	.
=78-	=78-	=78-	=78-	=78-	=78-	=78-	=78-	=78-	=78-
1E	.	1E	.	4G\	.	4e\	.	2cc\	.
.	.	.	.	4A\	.	4f\	.	.	.
.	.	.	.	4B\	.	1g	.	1b	.
!	!	!	!	!LO:TX:b:t=P:problem:# below	!	!	!	!	!
.	.	.	.	4c#X\	.	.	.	.	.
!LO:TX:t=P:problem:kreska pseudotaktowa	!	!LO:SIC:v:t=custos E	!	!	!	!	!	!	!
1D	.	1D	-ct(us)	2.d\	.	.	.	.	.
!	!	!	!	!	!	!LO:TX:b:t=P:problem:# below	!	!	!
.	.	.	.	.	.	2f#X\	.	2a\	.
.	.	.	.	4c#\	.	.	.	.	.
!	!	!LO:LB:g=original	!	!	!	!	!	!	!
=79-	=79-	=79-	=79-	=79-	=79-	=79-	=79-	=79-	=79-
2E\	.	2E\	ſan-	2B\	.	2g\	-ct(us)	0g	-ct(us)
1C	.	1C	.	1e	.	4c\	San-	.	.
.	.	.	.	.	.	4d\	.	.	.
.	.	.	.	.	.	4e\	.	.	.
.	.	.	.	.	.	4fny\	.	.	.
!LO:TX:t=P:problem:kreska pseudotaktowa	!	!	!	!	!	!	!	!	!
2BB/	.	2BB/	.	2d\	.	2g\	.	.	.
!	!	!	!	!LO:LB:g=original	!	!	!	!	!
=80-	=80-	=80-	=80-	=80-	=80-	=80-	=80-	=80-	=80-
2.AA/	.	2.AA/	.	2.cny\	.	2.c\	.	4a\	San-
.	.	.	.	.	.	.	.	4b\	.
.	.	.	.	.	.	.	.	2.cc\	.
!	!	!	!	!	!	!LO:SIC:v:t=custos e	!	!	!
4BB/	.	4BB/	.	8B\L	.	4d\	.	.	.
.	.	.	.	8A\J	.	.	.	.	.
!	!	!	!	!LO:TX:b:t=P:problem:naklejka sklejająca rozdartą kartę zasłania tekst słowny	!	!LO:LB:g=original	!	!	!
2.C/	.	2.C/	.	2.G/	.	2.e\	.	.	.
.	.	.	.	.	.	.	.	4dd\	.
.	.	.	.	.	.	.	.	2.ee\	.
!LO:SIC:v:t=custos E	!	!	!	!	!	!LO:TX:b:t=P:problem:# below	!	!	!
4D\	.	4D\	.	4F/	.	4f#X\	.	.	.
!LO:LB:g=original	!	!	!	!	!	!	!	!	!
=81-	=81-	=81-	=81-	=81-	=81-	=81-	=81-	=81-	=81-
0E	.	0E	.	4E/	.	2g\	.	.	.
.	.	.	.	4F/	.	.	.	8dd\L	.
!	!	!	!	!	!	!	!	!LO:SIC:v:t=custos b	!
.	.	.	.	.	.	.	.	8cc\J	.
!	!	!	!	!	!	!	!	!LO:LB:g=original	!
.	.	.	.	4G/	.	2.G/	.	2.b\	.
.	.	.	.	4A/	.	.	.	.	.
.	.	.	.	2.B\	.	.	.	.	.
.	.	.	.	.	.	4A/	.	4a\	.
.	.	.	.	.	.	4B/	.	2g\	.
.	.	.	.	8A\L	.	4c/	.	.	.
.	.	.	.	8G\J	.	.	.	.	.
=82-	=82-	=82-	=82-	=82-	=82-	=82-	=82-	=82-	=82-
0D	4	0D	.	2A\	.	4d/	.	2f#X/	.
!LO:TX:t=P:problem:# w bc below	!	!	!	!	!	!	!	!	!
.	#3	.	.	.	.	4A/	.	.	.
.	.	.	.	2G\	.	4B/	.	1g	.
!	!	!	!	!	!	!LO:TX:b:t=P:problem:# below	!	!	!
.	.	.	.	.	.	4c#X/	.	.	.
.	.	.	.	1A	.	1d	.	.	.
.	.	.	.	.	.	.	.	2f#/	.
=83-	=83-	=83-	=83-	=83-	=83-	=83-	=83-	=83-	=83-
0GG;l	.	0GG;l	-ct(us)	0Bl	.	0d;l	-ct(us)	0g	-ct(us)
*clefC3	*	*	*	*	*	*	*	*	*
!	!	!LO:LB:g=original	!	!	!	!	!	!LO:LB:g=original	!
=84||	=84||	=84||	=84||	=84||	=84||	=84||	=84||	=84||	=84||
*met(C|)	*	*met(C|)	*	*met(C|)	*	*met(C|)	*	*met(C|)	*
*^	*	*	*	*	*	*	*	*	*
!LO:TX:b:i:t=Domin(us)	!	!	!	!	!	!	!	!	!	!
2r	1.rDyy	.	00r	.	1r	.	2r	.	0r	.
2.d\	.	.	.	.	.	.	2.d\	Do-	.	.
.	.	.	.	.	2r	.	.	.	.	.
4d\	.	.	.	.	.	.	4d\	-mi-	.	.
!LO:TX:t=P:problem:kreska pseudotaktowa	!	!	!	!	!	!	!	!	!	!
2d/	2.G\	.	.	.	2.G/	Do-	2d\	-n(us)	.	.
=85-	=85-	=85-	=85-	=85-	=85-	=85-	=85-	=85-	=85-	=85-
2e/	.	.	.	.	.	.	2e\	De-	0r	.
.	4G\	.	.	.	4G/	-mi-	.	.	.	.
!	!	!	!	!	!LO:SIC:v:t=custos A	!	!	!	!	!
2d/	2G\	.	.	.	2G/	-nus	2d\	-us	.	.
!	!	!	!	!	!LO:LB:g=original	!	!	!	!	!
2c/	2A\	.	.	.	2A/	De-	2c/	ſa-	.	.
!LO:TX:t=P:problem:kreska pseudotaktowa	!	!	!	!	!	!	!	!	!	!
2B/	2G\	.	.	.	2G/	-uſ	2B/	.	.	.
*v	*v	*	*	*	*	*	*	*	*	*
=86-	=86-	=86-	=86-	=86-	=86-	=86-	=86-	=86-	=86-
2F/	.	2r	.	2F/	Sa-	4A/	.	0r	.
.	.	.	.	.	.	4B/	.	.	.
*clefF4	*	*	*	*	*	*	*	*	*
2.GG/	4	2.GG/	Do-	2E/	-ba-	1c	-ba-	.	.
.	.	.	.	1D	-oth	.	.	.	.
4GG/	3	4GG/	-mi-	.	.	.	.	.	.
!LO:TX:t=P:problem:kreska pseudotaktowa	!	!	!	!	!	!	!	!	!
2GG/	.	2GG/	-n(us)	.	.	2B/	.	.	.
=87-	=87-	=87-	=87-	=87-	=87-	=87-	=87-	=87-	=87-
2AA/	.	2AA/	De-	1r	.	2c\	-oth	2r	.
2GG/	.	2GG/	-us	.	.	2r	.	2.g\	Do-
!	!	!	!	!	!	!LO:LB:g=original	!	!	!
2C\	.	2.C\	ſab-	2r	.	0r	.	.	.
.	.	.	.	.	.	.	.	4g\	-mi-
*	*	*	*	*	*ij	*	*	*	*
2E\	.	.	.	2.c\	Do-	.	.	2g\	-n(us)
.	.	8D\L	.	.	.	.	.	.	.
.	.	8E\J	.	.	.	.	.	.	.
!LO:LB:g=original	!	!	!	!	!	!	!	!	!
=88-	=88-	=88-	=88-	=88-	=88-	=88-	=88-	=88-	=88-
2F\	.	2F\	.	.	.	.	.	2a\	De-
.	.	.	.	4c\	-mi-	.	.	.	.
2E\	.	2E\	.	2c\	-nus	.	.	2g\	-us
2D\	.	2D\	.	2f\	De-	1r	.	4a\	.
.	.	.	.	.	.	.	.	4b\	.
!LO:TX:t=P:problem:kreska pseudotaktowa	!	!	!	!	!	!	!	!	!
2C\	.	2C\	-ba-	2e\	-uſ	.	.	1cc	ſa-
=89-	=89-	=89-	=89-	=89-	=89-	=89-	=89-	=89-	=89-
!LO:TX:b:i:t=pleni	!	!	!	!	!	!	!	!	!
1G	4	1G	-oth	2.d\	Sa-	2r	.	.	.
.	3	.	.	.	.	2g\	ple-	2b\	-ba-
.	.	.	.	4d\	-ba-	.	.	.	.
!LO:TX:t=P:problem:kreska pseudotaktowa	!	!	!	!	!	!	!	!	!
1C	.	1r	.	1c	-oth	2e\	-ni	0cc	-oth
*	*	*	*	*	*Xij	*	*	*	*
.	.	.	.	.	.	2g\	ſunt	.	.
=90-	=90-	=90-	=90-	=90-	=90-	=90-	=90-	=90-	=90-
1F	.	2r	.	1r	.	2a\	Cae-	.	.
.	.	2F\	ple-	.	.	4a\	-li	.	.
.	.	.	.	.	.	4g\	.	.	.
2D\	.	2D\	-ni	2r	.	4f\	et	00r	.
.	.	.	.	.	.	4g\	.	.	.
!LO:TX:t=P:problem:kreska pseudotaktowa	!	!LO:SIC:v:t=custos G	!	!	!	!	!	!	!
2F\	.	2F\	ſunt	2c\	ple-	2a\	ter-	.	.
!	!	!LO:LB:g=original	!	!	!	!	!	!	!
=91-	=91-	=91-	=91-	=91-	=91-	=91-	=91-	=91-	=91-
2.G\	.	2G\	Cae-	2B\	-ni	2.d\	.	.	.
.	.	4G\	-li	2d\	ſunt	.	.	.	.
4F\	.	4F\	.	.	.	8e\L	.	.	.
.	.	.	.	.	.	8f\J	.	.	.
2E\	.	4E\	et	2e\	Cae-	2g\	.	.	.
.	.	4F\	.	.	.	.	.	.	.
!LO:TX:t=P:problem:kreska pseudotaktowa	!	!	!	!	!	!	!	!	!
2G\	.	2G\	ter-	4e\	-li	4g\	.	.	.
.	.	.	.	4d\	.	4f\	.	.	.
=92-	=92-	=92-	=92-	=92-	=92-	=92-	=92-	=92-	=92-
!LO:TX:t=P:problem:kreska pseudotaktowa	!	!	!	!	!	!	!	!	!
!LO:TX:t=P:problem:# w bc below	!	!	!	!LO:TX:b:t=P:problem:# below	!	!	!	!	!
0A	#3	0A	.	2c#X\	et	2e\	.	.	.
.	4	.	.	1d	ter-	2d\	-ra	.	.
.	3	.	.	.	.	1e	.	2r	.
!	!	!	!	!LO:TX:b:t=P:problem:# below	!	!	!	!	!
.	.	.	.	2c#X\	.	.	.	2a\	ple-
=93-	=93-	=93-	=93-	=93-	=93-	=93-	=93-	=93-	=93-
*	*below	*	*	*	*	*	*	*	*
!	!	!	!	!LO:SIC:v:t=custos G	!	!	!	!	!
1D	#	1D	-ra	1d	-ra	2r	.	2f#X/	-ni
!	!	!	!	!	!	!	!	!LO:SIC:v:t=custos b	!
.	.	.	.	.	.	2d\	ple-	2a\	ſunt
!LO:TX:t=P:problem:kreska pseudotaktowa	!	!	!	!LO:LB:g=original	!	!	!	!LO:PB:g=original	!
1G	.	00r	.	2r	.	2B\	-ni	2b\	Cae-
*	*	*	*	*	*ij	*	*	*	*
.	.	.	.	2G/	ple-	2d\	ſunt	4b\	-li
.	.	.	.	.	.	.	.	4a\	et
=94-	=94-	=94-	=94-	=94-	=94-	=94-	=94-	=94-	=94-
2E\	.	.	.	2E/	-ni	2e\	Cae-	2.g\	ter-
2G\	.	.	.	2G/	ſunt	4e\	-li	.	.
.	.	.	.	.	.	4d\	.	8a\L	.
.	.	.	.	.	.	.	.	8b\J	.
2.A\	.	.	.	2A/	Cae-	2.c\	et	2.cc\	.
.	.	.	.	4A/	-li	.	.	.	.
!LO:TX:t=P:problem:kreska pseudotaktowa	!	!	!	!	!	!	!	!	!
4G\	.	.	.	4G/	et	8d\L	ter-	4b\	.
.	.	.	.	.	.	8e\J	.	.	.
=95-	=95-	=95-	=95-	=95-	=95-	=95-	=95-	=95-	=95-
*	*above	*	*	*lig	*	*	*	*	*
1F	6	.	.	1F	ter-	2f\	-ra	4a\	.
.	5	.	.	.	.	.	.	4b\	.
.	.	.	.	.	.	4f\	et	1cc	.
!	!	!	!	!	!	!LO:SIC:v:t=custos d	!	!	!
.	.	.	.	.	.	4e\	.	.	.
!LO:TX:t=P:problem:kreska pseudotaktowa	!	!	!	!	!	!LO:LB:g=original	!	!	!
1G	4	2r	.	1G	.	1d	ter-	.	.
*	*	*	*	*Xlig	*	*	*	*	*
.	3	2.G\	glo-	.	.	.	.	2b\	.
=96-	=96-	=96-	=96-	=96-	=96-	=96-	=96-	=96-	=96-
!LO:SIC:v:t=custos F	!	!	!	!	!	!	!	!	!
0C	.	.	.	2C/	-ra	1e	-ra	1cc	-ra
*	*	*	*	*	*Xij	*	*	*	*
.	.	4G\	-ri-	.	.	.	.	.	.
.	.	2C/	-a	2.cny\	glo-	.	.	.	.
!	!	!	!	!	!	!LO:N:vis=0	!	!	!
.	.	4E\	tu-	.	.	1r	.	1r	.
.	.	4F\	.	4c\	-ri-	.	.	.	.
.	.	4G\	.	2G\	-a	.	.	.	.
.	.	4E\	.	.	.	.	.	.	.
!LO:LB:g=original	!	!	!	!	!	!	!	!	!
=97-	=97-	=97-	=97-	=97-	=97-	=97-	=97-	=97-	=97-
4F\	.	4F\	.	4A\	tu-	1r	.	2r	.
4G\	.	4G\	.	4B\	.	.	.	.	.
2A\	.	2A\	.	4c\	.	.	.	2.cc\	glo-
.	.	.	.	4A\	.	.	.	.	.
!LO:TX:t=P:problem:kreska pseudotaktowa	!	!	!	!	!	!	!	!	!
1G	4	1G	-a	1d	.	2r	.	.	.
.	.	.	.	.	.	.	.	4cc\	-ri-
.	3	.	.	.	.	2.g\	glo-	2g\	-a
=98-	=98-	=98-	=98-	=98-	=98-	=98-	=98-	=98-	=98-
2G\	3	2r	.	1G	-a	.	.	4b\	tu-
.	.	.	.	.	.	4g\	-ri-	4cc\	.
!LO:TX:t=P:problem:kreska pseudotaktowa	!	!	!	!	!	!	!	!	!
2GG/	.	2GG/	O-	.	.	2d\	-a	4dd\	.
.	.	.	.	.	.	.	.	4b\	.
1C	.	4C/	-ſan-	1r	.	4e\	tu-	1cc	-a
!	!	!	!	!	!	!LO:TX:b:t=P:problem:# below	!	!	!
.	.	4D/	-na	.	.	4f#X\	.	.	.
.	.	4E/	in	.	.	1g	.	.	.
!	!	!LO:SIC:v:t=custos D	!	!	!	!	!	!	!
.	.	4C/	ex-	.	.	.	.	.	.
!	!	!LO:LB:g=original	!	!	!	!	!	!	!
=99-	=99-	=99-	=99-	=99-	=99-	=99-	=99-	=99-	=99-
!LO:TX:t=P:problem:kreska pseudotaktowa	!	!	!	!	!	!	!	!	!
!LO:TX:t=P:problem:# w bc below	!	!	!	!	!	!	!	!	!
1D	4 #3	1D	-cel-	2r	.	.	.	1a	.
!	!	!	!	!	!	!LO:TX:b:t=P:problem:# below	!	!	!
.	.	.	.	2A\	O-	2f#X\	.	.	.
1GG	.	2GG/	-siſ	4B\	-ſan-	1g	-a	2r	.
.	.	.	.	4c\	-na	.	.	.	.
*	*	*	*ij	*	*	*	*	*	*
.	.	2G\	O-	4d\	in	.	.	2b\	O-
.	.	.	.	4B\	ex-	.	.	.	.
=100-	=100-	=100-	=100-	=100-	=100-	=100-	=100-	=100-	=100-
!LO:TX:t=P:problem:kreska pseudotaktowa	!	!	!	!	!	!	!	!	!
1AA	.	4A\	-ſan-	1A	-cel-	1r	.	4cc\	-ſan-
!	!	!	!	!	!	!	!	!LO:TX:t=P:problem:karta urwana, nuta niewidoczna	!
.	.	4B\	-na	.	.	.	.	4dd\yy	-na
!	!	!	!	!	!	!	!	!LO:LB:g=original	!
.	.	4c\	in	.	.	.	.	4ee\	in
.	.	4A\	ex-	.	.	.	.	4cc\	ex-
!LO:TX:t=P:problem:kreska pseudotaktowa	!	!	!	!LO:SIC:v:t=custos c	!	!	!	!	!
1BB 1G	.	1B	-cel-	1G	-sis	2r	.	1dd	-cel-
.	.	.	.	.	.	2d\	O-	.	.
!	!	!	!	!LO:LB:g=original	!	!	!	!	!
=101-	=101-	=101-	=101-	=101-	=101-	=101-	=101-	=101-	=101-
1C	.	1c	-siſ	2r	.	4e\	-ſan-	2cc\	-ſis
.	.	.	.	.	.	4fny\	-na	.	.
*	*	*	*Xij	*	*ij	*	*	*	*
.	.	.	.	2c\	O-	4g\	in	2ee\	in
.	.	.	.	.	.	4e\	Ex-	.	.
!LO:TX:t=P:problem:kreska pseudotaktowa	!	!	!	!	!	!	!	!	!
1D	.	1r	.	4d\	-ſan-	4f\	-cel-	2dd\	ex-
.	.	.	.	4e\	-na	4g\	.	.	.
.	.	.	.	4f\	in	1a	.	2cc\	-cel-
.	.	.	.	4d\	ex-	.	.	.	.
=102-	=102-	=102-	=102-	=102-	=102-	=102-	=102-	=102-	=102-
1E	4	2r	.	1e	-cel-	.	.	1b	-sis
!LO:TX:t=P:problem:# w bc below	!	!	!	!	!	!	!	!	!
.	#3	2E\	O-	.	.	2g\	.	.	.
!LO:TX:t=P:problem:kreska pseudotaktowa	!	!	!	!	!	!	!	!	!
1F	.	4F\	-ſan-	1A	-sis	1a	-siſ	2r	.
*	*	*	*	*	*Xij	*	*	*	*
.	.	4G\	-na	.	.	.	.	.	.
.	.	4A\	in	.	.	.	.	2a\	O-
.	.	4F\	ex-	.	.	.	.	.	.
=103-	=103-	=103-	=103-	=103-	=103-	=103-	=103-	=103-	=103-
1G	3	1G	-Cel-	1r	.	2r	.	4b\	-ſan-
.	.	.	.	.	.	.	.	4cc\	-na
*	*	*	*	*	*	*	*ij	*	*
.	.	.	.	.	.	2d\	O-	4dd\	in
.	.	.	.	.	.	.	.	4b\	ex-
!LO:TX:t=P:problem:kreska pseudotaktowa	!	!	!	!	!	!	!	!	!
1C	.	1C	-siſ	2r	.	4e\	-ſan-	1cc	-cel-
.	.	.	.	.	.	4f\	-na	.	.
.	.	.	.	2G\	O-	4g\	in	.	.
.	.	.	.	.	.	4e\	Ex-	.	.
=104-	=104-	=104-	=104-	=104-	=104-	=104-	=104-	=104-	=104-
1BB	.	2r	.	4B\	-ſan-	4d\	-cel-	1dd	-sis
.	.	.	.	4c\	-na	8e\L	.	.	.
.	.	.	.	.	.	8f\J	.	.	.
*	*	*	*ij	*	*	*	*	*	*
.	.	2BB/	O-	4d\	in	4g\	.	.	.
!	!	!	!	!	!	!LO:SIC:v:t=custos e	!	!	!
.	.	.	.	4B\	ex-	4f\	.	.	.
!LO:TX:t=P:problem:kreska pseudotaktowa	!	!	!	!	!	!LO:PB:g=original	!	!	!
1C	.	4C/	-ſan-	1e	-cel-	4e\	.	1r	.
!	!	!	!	!	!	!LO:TX:b:t=P:problem:# below	!	!	!
.	.	4D/	-na	.	.	4f#X\	.	.	.
.	.	4E/	in	.	.	1g	.	.	.
.	.	4C/	ex-	.	.	.	.	.	.
=105-	=105-	=105-	=105-	=105-	=105-	=105-	=105-	=105-	=105-
1D	4	1D	-Cel-	1A	-sis	.	.	2r	.
*	*	*	*	*	*	*	*	*	*ij
!LO:TX:t=P:problem: # w bc below	!	!	!	!	!	!LO:TX:b:t=P:problem:# below	!	!	!
.	#3	.	.	.	.	2f#X\	.	2a\	O-
!LO:SIC:v:t=custos C	!	!LO:SIC:v:t=custos C	!	!	!	!	!	!	!
1GG	.	1GG	-siſ	2r	.	2g\	-siſ	4b\	-ſan-
*	*	*	*Xij	*	*	*	*Xij	*	*
.	.	.	.	.	.	.	.	4cc\	-na
*	*	*	*	*	*ij	*	*	*	*
.	.	.	.	2G\	O-	2d\	o-	4dd\	.-in
.	.	.	.	.	.	.	.	4b\	ex-
!LO:LB:g=original	!	!LO:LB:g=original	!	!	!	!	!	!	!
=106-	=106-	=106-	=106-	=106-	=106-	=106-	=106-	=106-	=106-
1C	.	2r	.	4c\	-ſan-	4e\	-ſan-	2.cc\	-cel-
.	.	.	.	4d\	-na	4fny\	-na	.	.
.	.	2C/	O-	4e\	in	4g\	in	.	.
.	.	.	.	4c\	ex-	4e\	Ex-	4b\	.
!LO:TX:t=P:problem:kreska pseudotaktowa	!	!	!	!	!	!	!	!	!
1F	.	4F\	-ſan-	2d\	-cel-	4a\	-cel-	4a\	.
!	!	!	!	!	!	!	!	!LO:TX:t=P:problem:karta urwana, nuty niewidoczne	!
.	.	4G\	-na	.	.	4g\	.	4b\	.
.	.	4A\	in	2A\	-sis	4f\	.	2ryy	.
*	*	*	*	*	*Xij	*	*	*	*
.	.	4F\	ex-	.	.	4e\	.	.	.
=107-	=107-	=107-	=107-	=107-	=107-	=107-	=107-	=107-	=107-
*	*	*lig	*	*	*	*	*	*	*
!	!	!	!	!	!	!LO:TX:t=P:problem:brakuje kilku nut, dopisane na podstawie dalszej melodii w C	!	!	!
1G	.	1G	-cel-	0r	.	4d\yy	.	2ryy	.
.	.	.	.	.	.	4e\yy	.	.	.
!	!	!	!	!	!	!	!	!LO:LB:g=original	!
.	.	.	.	.	.	4f\yy	.	2b\	-sis
*	*	*col	*	*	*	*	*	*	*Xij
.	.	.	.	.	.	4d\yy	.	.	.
2.A\	.	2.A\	.	.	.	2e\yy	.	2r	.
!	!	!	!	!	!	!	!	!LO:TX:a:t=P:problem:dopisane ołówkiem kreski taktowe sugerujące podłożenie tekstu	!
.	.	.	.	.	.	2f\yy	.	2cc\	O-
*	*	*Xlig	*	*	*	*	*	*	*
!LO:TX:t=P:problem:kreska pseudotaktowa	!	!	!	!	!	!	!	!	!
4G\	.	4G\	.	.	.	.	.	.	.
*	*	*Xcol	*	*	*	*	*	*	*
=108-	=108-	=108-	=108-	=108-	=108-	=108-	=108-	=108-	=108-
2F\	.	2F\	.	2r	.	1f	.	4dd\	-ſan-
.	.	.	.	.	.	.	.	4ee\	.
2D\	6	2D\	-ſis	2B\	O-	.	.	4ff\	.
.	.	.	.	.	.	.	.	4dd\	.
!LO:TX:t=P:problem:kreska pseudotaktowa	!	!	!	!	!	!	!	!	!
1A	7	1A	in	4c\	-ſan-	1d	-ſis	4ee\	-na
.	.	.	.	4d\	-na	.	.	4dd\	.
.	.	.	.	4e\	in	.	.	4cc\	.
!	!	!	!	!LO:SIC:v:t=custos d	!	!	!	!	!
.	.	.	.	4c\	ex-	.	.	4b\	.
!	!	!	!	!LO:LB:g=original	!	!	!	!	!
=109-	=109-	=109-	=109-	=109-	=109-	=109-	=109-	=109-	=109-
*	*	*	*	*	*	*	*ij	*	*
1F	6	1F	ex-	2d\	-cel-	2f\	o-	4a\	in
.	.	.	.	.	.	.	.	4b\	.
.	5	.	.	2c\	-ſis	2.f\	-ſan-	4cc\	.
.	.	.	.	.	.	.	.	4a\	.
2G\	7	2G\	-cel-	2B\	in	.	.	2b\	ex-
.	.	.	.	.	.	4f\	-na	.	.
!LO:TX:t=P:problem:kreska pseudotaktowa	!	!	!	!	!	!	!	!	!
2C/	.	2C/	.	2G/	ex-	4e\	in	1cc	-cel-
.	.	.	.	.	.	4e\	ex-	.	.
=110-	=110-	=110-	=110-	=110-	=110-	=110-	=110-	=110-	=110-
0GG	4	0GG	.	0G	-cel-	2e\	-cel-	.	.
.	.	.	.	.	.	4d\	.	4b\	.
.	.	.	.	.	.	4c\	.	4a\	.
.	3	.	.	.	.	1d	.	1b	.
=111-	=111-	=111-	=111-	=111-	=111-	=111-	=111-	=111-	=111-
0C;l	.	0C;l	-ſis.	0G;l	-sis.	0e;l	-ſis	0cc;l	-ſis.
*	*	*	*	*	*	*	*Xij	*	*
==	==	==	==	==	==	==	==	==	==
*-	*-	*-	*-	*-	*-	*-	*-	*-	*-
!!!system-decoration: [(s1,s2,s3,s4)]s5
!!!RDF**kern: < = below
!!!RDF**kern: l = terminal long
!!!ENC: Marta Lawrence
!!!END: 2021-07-30
!!!ENC: Mateusz Solarz
!!!END: 2021-07-06
